_includes/icons/color-edit.svg

<svg fill="#666" height="50" viewBox="0 0 48 48" width="50" xmlns="http://www.w3.org/2000/svg"><path d="m42.582031 9.066406-3.648437-3.648437c-.554688-.558594-1.460938-.558594-2.015625 0l-1.71875 1.71875 5.664062 5.664062 1.71875-1.71875c.558594-.554687.558594-1.457031 0-2.015625" fill="#e57373"/><path d="m38.03125 15.632813-25.460937 25.460937-5.664063-5.664062 25.460938-25.460938z" fill="#ff9800"/><path d="m32.363281 9.96875 2.832032-2.832031 5.667968 5.664062-2.832031 2.832032z" fill="#b0bec5"/><path d="m6.90625 35.429688-1.90625 7.570312 7.570313-1.90625z" fill="#ffc107"/><path d="m5.964844 39.171875-.964844 3.828125 3.828125-.964844z" fill="#37474f"/></svg>

<svg xmlns="http://www.w3.org/2000/svg" viewBox="0 0 48 48" width="50" height="50" fill="#666"><path d="M 42.582031 9.066406 L 38.933594 5.417969 C 38.378906 4.859375 37.472656 4.859375 36.917969 5.417969 L 35.199219 7.136719 L 40.863281 12.800781 L 42.582031 11.082031 C 43.140625 10.527344 43.140625 9.625 42.582031 9.066406" fill="#e57373"/><path d="M 38.03125 15.632813 L 12.570313 41.09375 L 6.90625 35.429688 L 32.367188 9.96875 Z" fill="#ff9800"/><path d="M 32.363281 9.96875 L 35.195313 7.136719 L 40.863281 12.800781 L 38.03125 15.632813 Z" fill="#b0bec5"/><path d="M 6.90625 35.429688 L 5 43 L 12.570313 41.09375 Z" fill="#ffc107"/><path d="M 5.964844 39.171875 L 5 43 L 8.828125 42.035156 Z" fill="#37474f"/></svg>
